X:1
T:Title
%%score 1 { 2 | 3 }
L:1/8
Q:1/4=110
M:4/4
K:G
V:1 treble nm="Grand Piano, Soprano"
V:2 bass nm="Choir Pad, Darmstadt, 87.87 D"
V:3 bass 
V:1
 D2 [DB]2- [DB][^C_B] [D=B]2 | [B,D]2 [CE]2 [EG]4 | [DB]2 [DA]2- [DA][DG] [DA]2 | [DB]2 [DA]6 | %4
w: By~William~James~Kirkpatrick,~1885 * * * *||||
 D2 [DB]2- [DB][^C_B] [D=B]2 | [B,D]2 [CE]2 [EG]4 | [DB]2 [CA]2- [CA][B,G] [DB]2- | %7
w: |||
 [DB][CA] [B,G]6 | [Gd]2 [Fe]2- [Fe][FA] [FA]2 | [GB]2 [Fc]2 [Fc]4 | [Fd]2 [Gd]2- [Gd][Gd] [GB]2 | %11
w: ||||
 G2 [FA]6 | [=FB]2 [Ec]2- [Ec][EB] [Ec]2 | [CE]2 [B,D]2 [DG]4 | [DB]2 [^CA]2- [CA][CG] [DB]2- | %15
w: ||||
 [DB][CA] [B,G]6- | [B,G]2 z2 z4 |] %17
w: ||
V:2
 D,2 G,2- G,G, G,2 | G,2 G,2 G,4 | G,2 F,2- F,E, F,2 | G,2 F,6 | F,2 G,2- G,G, G,2 | G,2 G,2 G,4 | %6
 G,2 F,2- F,G, G,2- | G,F, G,6 | B,2 A,2- A,D D2 | B,2 A,2 A,4 | C2 B,2- B,B,[K:treble] D2 | %11
 B,2 D6 | D2 C2- C[K:bass]G, G,2 | G,2 G,2 B,4 | G,2 G,2- G,G, G,2- | G,D, D,6- | D,2 z2 z4 |] %17
V:3
 z2 G,,2- G,,G,, G,,2 | G,,2 C,2 C,4 | G,,2 D,2- D,D, D,2 | D,2 D,6 | D,2 G,,2- G,,G,, G,,2 | %5
 G,,2 C,2 C,4 | G,,2 D,2- D,D, D,2- | D,D, [G,,D,]6 | G,2 D,2- D,D, D,2 | D,2 D,2 D,4 | %10
 D,2 G,2- G,G, G,2 | G,2 D,6 | G,2 C,2- C,C, C,2 | C,2 G,,2 G,,4 | z2 E,2- E,E, D,2- | D, z G,,6- | %16
 G,,2 z2 z4 |] %17

